X:1
T:Poi ch'attendi
T:Poi ch'attendi
T:Gio.Girolamo Kapsperger
C:Gio.Girolamo Kapsperger
%%score [ 1 2 3 ] { ( 4 6 ) | ( 5 7 ) }
L:1/8
Q:1/4=120
M:3/2
K:F
V:1 treble nm="Soprano 1" snm="S 1"
V:2 treble nm="Soprano 2" snm="S 2"
V:3 bass nm="Bass" snm="B"
V:4 treble nm="BC" snm="BC"
V:6 treble 
V:5 bass 
V:7 bass 
V:1
 d8 e4 | B8 c4 | d8 e4 |[M:4/4] f4 f2 cc | c3 d d3 c | A4 A4- | A2 Bc dGAB | c4 c2 fd | g3 G c3 d | %9
w: Poi ch'at-|ten- di'og-|n'hor bra-|mo- sa, ca- ra|fil- li'al mio mo-|ri- re,|_ que- sta mia fiam'- a- mo-|ro- sa, far- ra|lie- to'il tuo de-|
w: Sun che|bra- ma'in-|ten- t'ogn-|'ho- ra, la tua|gio- ia'il tuo di-|let- to,|_ ce- re- ni sol ch'e- gli'ac|co- ra, di tor-|men- to'e di di-|
w: Dun- que|ha, for-|za'em- pia'e|cru- del, la tua|vo- glia si ru-|bel- la,|_ per l'al- trui fiam- 'e cru-|de- le, far- ti|cru- da'e far- ti|
 A4 G4 :: z2 f4 e^f | c4 =B4 | B2 ^c2 d4 | A=B c4 B2 | c6 cd | _e4 d2 d2 | c4 B2 Bc | d6 cB | %18
w: si- re.|Ahi fil- l'in-|gra- ta,|cru- da piu|del- le fie- *|re, mu- ta,|mu- ta pen-|sie re, mu- ta,|mu- ta pen-|
w: spet- to.|Ahi fil- l'in-|gra- ta|du- ra piu|d'u- nas- co- *|glio, la- scia,|las- cia bor-|go- glio, la- scia,|la- scia bor-|
w: bel- la.|Ahi fil- l'in-|gra- ta,|stra- na piu|de- la mor- *|te, can- gia,|can- gia- la|for- te, can- gia,|can- gia la|
 A4 G4 :| z8 |] %20
w: sie- re.||
w: go- glio.||
w: for- te.||
V:2
 B8 A4 | G8 A4 | B8 B4 |[M:4/4] A4 A2 AA | A3 B G3 A | ^F4 F4- | F2 dc BBAG | A4 A2 AF | %8
w: Poi ch'at-|ten- di'og-|n'hor bra-|mo- sa, ca- ra|fil- li'al mio mo-|ri- re,|_ que- sta mia- fiam' a- mo-|ro- sa, fa- ra|
w: Sun che|bra- ma'in-|ten- t'ogn-|ho- ra, la tua|gio- ia'il tuo di-|let- to,|_ ce- re- ni sol ch'e- gli'ac-|co- ra, di tor-|
w: Dun- que|ha, for-|za'em- pia'e|cru- del, la tua|vo- glia si ru-|bel- la,|_ per l'al- trui fiam- 'e cru-|de- le, far- ti|
 B3 B AG G2- | G2 F2 G4 :: d4 c3 c | (G2 A2) =B4 | G2 G2 ^F4 | A2 G2 d4 | c6 AB | c4 B2 G2 | %16
w: lie- to'il tuo de- si-|* * re.|Ahi fil- l'in-|gra- * ta,|cru- da piu|del- le fie-|re, mu- ta,|mu- ta pen-|
w: men- to'e di di- spet-|* * to.|Ahi fil- l'in-|gra- * ta,|du- ra piu|d'u- n'as- co-|glio, la- scia,|la- scia bor-|
w: cru- da'e far- ti bel-|bel- * la.|Ahi fil- l'in-|gra- * ta,|sta- na piu|de la mor-|te, can- gia,|can- gia la|
 _e4 d2 GA | B6 cd | c4 =B4 :| z8 |] %20
w: sie- re, mu- ta,|mu- ta pen-|sie- re.||
w: go- glio, la- scia,|la- scia bor-|go- glio.||
w: for- te, can- gia,|can- gia la|for- te.||
V:3
 G,8 D,4 | _E,8 C,4 | B,,8 G,,4 |[M:4/4] F,,4 F,,2 F,F, | F,3 D, _E,3 E, | D,4 D,4- | %6
w: Poi ch'at-|ten- di'og-|n'hor bra-|mo- sa, ca- ra|fil- li'al mio mo-|ri- re,|
w: Sun che|bra- ma'in-|ten- t'ogn-|ho- ra, la tua|gio- ia'il tuo di-|let- to,|
w: Dun- que|ha, for-|za'em- pia'e|cru- del, la tua|vo- glia si ru-|bel- la,|
 D,2 G,A, B,_E,F,G, | F,4 F,4 | B,,G,, C,3 C,_E,=B,, | D,4 G,,4 :: B,4 A,3 A, | (E,2 ^F,2) G,4 | %12
w: _ que- sta mia fiam' a- mo-|ro- sa,|fa- ra lie- to'il tuo de-|si- re.|Ahi fil- l'in-|gra- * ta,|
w: _ ce- re- ni sol ch'e- gli'ac-|co- ra,|di tor- men- to'e di- spet-|* to.|Ahi fil- l'in-|gra- * ta,|
w: _ per l'al- trui fiam- 'e cru-|de- le,|far- ti cru- da'e far- ti|bel- la.|Ahi fil- l'in-|gra- * ta,|
 G,2 E,2 D,4 | F,2 E,2 G,4 | C,8 | z2 G,A, B,2 CB, | B,3 A, B,4- | B,2 E,^F, G,2 A,G, | %18
w: cru- da piu|del- le fie-|re,|mu- ta, mu- ta pen-|sie- * re,|_ mu- ta, mu- ta pen-|
w: du- ra piu|d'u- n'as- co-|glio,|la- scia,- la- scia bor-|go- * glio,|_ la- scia, la- scia bor-|
w: sta- na piu|de la mor-|te|can- ga, can- gia la|for- * te,|_ can- gia, can- gia la|
 G,2 ^F,2 G,4 :| z8 |] %20
w: sie- * re||
w: go- * glio.||
w: for- * te.||
V:4
 [DGB]8 [FA]4 | [GB]8 [Ac]4 | [DFB]8 [DB]4 |[M:4/4] [CFA]8 | [FA]3 [DB] [GB]4 | [^FA]8- | %6
 [FA]2 Bc dB AG | [CFA]8 | [DB]2 [EG]2 [Gc]3 [Gd] | d4 =B4 :: [Fd]4 [Ac]4 | [Gc]2 A2 [=Bd]4 | %12
 [G=B]2 [G^c]2 [^FAd]4 | A2 c2 c2 =B2 | x8 | x8 | [c_e]4 [Fd-]4 | [Bd]6 [Ac][Bd] | [Ac]4 [=Bd]4 :| %19
 z8 |] %20
V:5
 G,8 D,4 | _E,8 C,4 | B,,8 G,,4 |[M:4/4] F,,8 | F,3 D, _E,4 | D,8- | D,2 G,A, B,_E,F,G, | F,8 | %8
 B,,G,, C,4 _E,=B,, | [D,A,]4 [G,,G,]4 :: B,4 A,4 | E,2 ^F,2 G,4 | G,2 E,2 D,4 | F,2 E,2 G,4 | %14
 C,8 | z2 G,A, B,2 CB, | B,3 A, B,4- | B,2 E,^F, G,2 A,G, | G,2 ^F,2 G,4 :| z8 |] %20
V:6
 x12 | x12 | x12 |[M:4/4] x8 | x8 | x8 | x8 | x8 | x8 | G2 ^F2 [DG]4 :: x8 | x8 | x8 | C2 G2 D4 | %14
 [EGc]8 | [G_e]4 [Gd]4 | x8 | x8 | x8 :| x8 |] %20
V:7
 x12 | x12 | x12 |[M:4/4] x8 | x8 | x8 | x8 | x8 | x8 | x8 :: x8 | x8 | x8 | x8 | x8 | x8 | x8 | %17
 x8 | C,2 D,2 G,4 :| x8 |] %20

